svgs/thin/arrows-retweet.svg

<svg xmlns="http://www.w3.org/2000/svg" viewBox="0 0 640 512"><!--! Font Awesome Pro 6.3.0 by @fontawesome - https://fontawesome.com License - https://fontawesome.com/license (Commercial License) Copyright 2023 Fonticons, Inc. --><path d="M352 400H159.1c-13.23 0-24-10.78-24-24V90.4l106.5 99.44C244.1 191.3 246 192 248 192c2.141 0 4.266-.8438 5.844-2.531c3.016-3.25 2.844-8.312-.3906-11.31l-120-112c-3.062-2.875-7.844-2.875-10.91 0l-120 112c-3.234 3-3.406 8.062-.3906 11.31c3.031 3.219 8.078 3.406 11.3 .375L119.1 90.4V376c0 22.06 17.94 40 40 40H352c4.422 0 8-3.594 8-8S356.4 400 352 400zM637.8 322.5c-3-3.219-8.078-3.375-11.3-.375l-106.5 99.44V136c0-22.06-17.94-40-40-40H288C283.6 96 280 99.59 280 104S283.6 112 288 112h192c13.23 0 24 10.78 24 24v285.6l-106.5-99.44c-3.203-3-8.266-2.844-11.3 .375c-3.016 3.25-2.844 8.312 .3906 11.31l120 112C508.1 447.3 510 448 512 448s3.923-.7187 5.455-2.156l120-112C640.7 330.8 640.9 325.8 637.8 322.5z"/></svg>

<svg xmlns="http://www.w3.org/2000/svg" viewBox="0 0 640 512"><!-- Font Awesome Pro 6.0.0-alpha2 by @fontawesome - https://fontawesome.com License - https://fontawesome.com/license (Commercial License) --><path d="M351.999 400H159.997C146.763 400 135.997 389.219 135.997 376V90.404L242.546 189.844C244.077 191.281 246.046 192 247.999 192C250.14 192 252.265 191.156 253.843 189.469C256.858 186.219 256.686 181.156 253.452 178.156L133.45 66.156C130.388 63.281 125.606 63.281 122.544 66.156L2.544 178.156C-0.691 181.156 -0.862 186.219 2.153 189.469C5.184 192.687 10.231 192.875 13.45 189.844L119.997 90.404V376C119.997 398.062 137.934 416 159.997 416H351.999C356.421 416 359.999 412.406 359.999 408S356.421 400 351.999 400ZM637.847 322.531C634.847 319.313 629.768 319.156 626.55 322.156L520.001 421.596V136C520.001 113.938 502.063 96 480.001 96H287.999C283.577 96 279.999 99.594 279.999 104S283.577 112 287.999 112H480.001C493.235 112 504.001 122.781 504.001 136V421.596L397.454 322.156C394.251 319.156 389.188 319.312 386.157 322.531C383.141 325.781 383.313 330.844 386.548 333.844L506.548 445.844C508.079 447.281 510.048 448 512.001 448S515.923 447.281 517.454 445.844L637.456 333.844C640.69 330.844 640.862 325.781 637.847 322.531Z"/></svg>
